chrome/icons/moon.svg

<svg height="16" viewBox="82 3 938 1021" width="16" xmlns="http://www.w3.org/2000/svg" xmlns:xlink="http://www.w3.org/1999/xlink">
  <path d="M81.5,780.5C81.5,770.833 83.75,763.5 88.25,758.5C92.75,753.5 98.8333,748.833 106.5,744.5C115.833,739.5 125.833,735.417 136.5,732.25C147.167,729.083 157.333,725.5 167,721.5C196.333,709.833 225,696.667 253,682C281,667.333 307.5,650.5 332.5,631.5C363.833,607.833 391.333,581.25 415,551.75C438.667,522.25 458.417,490.75 474.25,457.25C490.083,423.75 502,388.5 510,351.5C518,314.5 522,276.5 522,237.5C522,205.167 519.417,173.583 514.25,142.75C509.083,111.917 503.333,80.8334 497,49.5C496.667,47.8334 496.417,46.3334 496.25,45C496.083,43.6667 496,42.1667 496,40.5C496,29.8334 499.667,20.8334 507,13.5C514.333,6.16675 523.333,2.50006 534,2.5C553,2.50006 572.583,4.25006 592.75,7.75C612.917,11.2501 632.917,16.0834 652.75,22.25C672.583,28.4167 692,35.5834 711,43.75C730,51.9167 747.667,60.6667 764,70C803.333,92.6667 838.833,119.917 870.5,151.75C902.167,183.583 929,218.667 951,257C973,295.333 989.917,336.25 1001.75,379.75C1013.58,423.25 1019.5,467.667 1019.5,513C1019.5,560 1013.42,605.25 1001.25,648.75C989.083,692.25 971.833,732.917 949.5,770.75C927.167,808.583 900.5,843 869.5,874C838.5,905 804,931.583 766,953.75C728,975.917 687.25,993.083 643.75,1005.25C600.25,1017.42 555,1023.5 508,1023.5C468,1023.5 427.667,1018.42 387,1008.25C346.333,998.083 307.5,983.5 270.5,964.5C233.5,945.5 199.25,922.333 167.75,895C136.25,867.667 109.667,836.833 88,802.5C83.6667,795.833 81.5,788.5 81.5,780.5ZM508,959C549,959 588.583,953.667 626.75,943C664.917,932.333 700.583,917.417 733.75,898.25C766.917,879.083 797.083,855.917 824.25,828.75C851.417,801.583 874.75,771.5 894.25,738.5C913.75,705.5 928.833,669.917 939.5,631.75C950.167,593.583 955.5,554 955.5,513C955.5,475.667 951.083,439.5 942.25,404.5C933.417,369.5 920.75,336.333 904.25,305C887.75,273.667 867.917,244.667 844.75,218C821.583,191.333 795.583,167.75 766.75,147.25C737.917,126.75 706.667,109.833 673,96.5C639.333,83.1667 604,74.1667 567,69.5C572.667,97.1667 577.25,124.917 580.75,152.75C584.25,180.583 586,208.667 586,237C586,285.667 580.417,332.833 569.25,378.5C558.083,424.167 541.167,468.5 518.5,511.5C499.167,548.167 476.667,580.75 451,609.25C425.333,637.75 397.25,663.25 366.75,685.75C336.25,708.25 303.583,728.167 268.75,745.5C233.917,762.833 197.833,778.667 160.5,793C181.5,819.333 205.083,842.833 231.25,863.5C257.417,884.167 285.417,901.583 315.25,915.75C345.083,929.917 376.25,940.667 408.75,948C441.25,955.333 474.333,959 508,959Z" fill="context-fill" fill-opacity="context-fill-opacity">
  </path>
</svg>

<svg xmlns="http://www.w3.org/2000/svg" width="16" height="16" viewBox="82 3 938 1021"><path fill="context-fill" fill-opacity="context-fill-opacity" d="M81.5 780.5q0-14.5 6.75-22t18.25-14q14-7.5 30-12.25T167 721.5a910 910 0 0 0 86-39.5q42-22 79.5-50.5 47-35.5 82.5-79.75t59.25-94.5T510 351.5t12-114q0-48.5-7.75-94.75A2840 2840 0 0 0 497 49.5a64 64 0 0 1-.75-4.5q-.25-2-.25-4.5 0-16 11-27t27-11q28.5 0 58.75 5.25t60 14.5A594 594 0 0 1 711 43.75Q739.5 56 764 70q59 34 106.5 81.75T951 257t50.75 122.75c11.83 43.5 17.75 87.917 17.75 133.25 0 47-6.08 92.25-18.25 135.75Q983 714 949.5 770.75T869.5 874 766 953.75t-122.25 51.5c-43.5 12.17-88.75 18.25-135.75 18.25-40 0-80.333-5.08-121-15.25Q326 993 270.5 964.5T167.75 895 88 802.5q-6.5-10-6.5-22M508 959q61.5 0 118.75-16t107-44.75 90.5-69.5 70-90.25 45.25-106.75 16-118.75q0-56-13.25-108.5t-38-99.5-59.5-87-78-70.75T673 96.5t-106-27a1097 1097 0 0 1 13.75 83.25Q586 194.5 586 237q0 73-16.75 141.5t-50.75 133q-29 55-67.5 97.75t-84.25 76.5-98 59.75T160.5 793q31.5 39.5 70.75 70.5t84 52.25 93.5 32.25T508 959"/></svg>
